resources/svg/golang.svg

<svg xmlns="http://www.w3.org/2000/svg" viewBox="0 0 24 24" fill="currentColor"><g fill="none"><path fill="currentColor" d="M21.4679537,3.20617761 C22.1814672,4.67953668 20.0131274,4.83706564 20.1243243,5.49498069 C20.3281853,6.68108108 20.1891892,8.44169884 20.0316602,10.1745174 C19.7629344,13.1119691 21.9590734,20.1451737 17.3814672,22.9714286 C16.5196911,23.5088803 14.4718147,23.8054054 12.4517375,23.8517375 C12.4517375,23.8517375 12.442471,23.8517375 12.442471,23.8517375 C12.442471,23.8517375 12.4332046,23.8517375 12.4332046,23.8517375 C10.4131274,23.8054054 8.08725869,23.5088803 7.22548263,22.9714286 C2.65714286,20.1451737 4.85328185,13.1119691 4.59382239,10.1745174 C4.42702703,8.44169884 4.28803089,6.68108108 4.5011583,5.49498069 C4.61235521,4.83706564 2.44401544,4.68880309 3.15752896,3.20617761 C3.76911197,1.93667954 5.27953668,3.05791506 5.65945946,2.65945946 C7.596139,0.648648649 9.94980695,0.111196911 11.8030888,0.0648648649 C11.988417,0.0648648649 12.8223938,0.0648648649 12.8223938,0.0648648649 C14.6664093,0.157528958 17.0200772,0.657915058 18.9660232,2.65945946 C19.3459459,3.05791506 20.8471042,1.93667954 21.4679537,3.20617761 Z M11.4324324,10.9065637 C11.3490347,10.9436293 11.2100386,11.8517375 11.6362934,11.8980695 C11.9235521,11.9258687 12.7111969,12.0185328 12.8965251,11.8980695 C13.2579151,11.6664093 13.2208494,11.1104247 13.0169884,10.9714286 C12.6741313,10.7490347 11.5250965,10.8602317 11.4324324,10.9065637 Z M9.07876448,4.10501931 C8.12432432,3.99382239 6.52123552,4.88339768 6.28030888,6.77374517 C6.02084942,8.73822394 8.33745174,10.6841699 10.56139,8.73822394 C11.7567568,7.69111969 12.1737452,4.46640927 9.07876448,4.10501931 Z M15.5281853,4.10501931 C12.4332046,4.46640927 12.8501931,7.69111969 14.0455598,8.73822394 C16.2694981,10.6841699 18.5861004,8.73822394 18.3266409,6.77374517 C18.0949807,4.88339768 16.4918919,3.99382239 15.5281853,4.10501931 Z"/><path fill="currentColor" d="M12.3127413,8.98841699 C12.8965251,8.90501931 14.2957529,9.57220077 14.2030888,10.3598456 C14.0918919,11.2772201 10.5984556,11.3976834 10.4131274,10.3042471 C10.3019305,9.63706564 10.8301158,9.21081081 12.3127413,8.98841699 Z M20.1984556,16.3737452 C19.9111969,16.3644788 19.7258687,15.984556 19.7258687,15.7528958 C19.7258687,15.3359073 19.7814672,14.8447876 20.0872587,14.6316602 C20.7173745,14.196139 21.2177606,16.3830116 20.1984556,16.3737452 Z M4.41776062,16.3737452 C3.3984556,16.3830116 3.8988417,14.196139 4.52895753,14.6316602 C4.83474903,14.8447876 4.89034749,15.3359073 4.89034749,15.7528958 C4.89034749,15.984556 4.70501931,16.3644788 4.41776062,16.3737452 Z M18.2617761,23.0918919 C18.4471042,23.3606178 18.4563707,23.5459459 18.1598456,23.6849421 C17.0293436,24.203861 16.019305,23.5088803 16.3992278,23.3142857 C17.2054054,22.9065637 17.7057915,22.2671815 18.2617761,23.0918919 Z M6.35444015,23.184556 C6.91042471,22.3598456 7.41081081,22.9992278 8.21698842,23.4069498 C8.5969112,23.6015444 7.58687259,24.2965251 6.45637066,23.7776062 C6.15984556,23.63861 6.16911197,23.4532819 6.35444015,23.184556 Z"/><path fill="currentColor" d="M19.7351351,3.42857143 C19.7814672,3.23397683 20.2633205,3.14131274 20.5320463,3.47490347 C20.8563707,3.87335907 20.0594595,4.42007722 20.0223938,4.1976834 C19.9297297,3.5953668 19.6795367,3.62316602 19.7351351,3.42857143 Z M4.88108108,3.42857143 C4.93667954,3.62316602 4.68648649,3.5953668 4.59382239,4.1976834 C4.55675676,4.42007722 3.75984556,3.87335907 4.08416988,3.47490347 C4.34362934,3.14131274 4.82548263,3.23397683 4.88108108,3.42857143 Z M15.7413127,7.94131274 C15.1578953,7.94131274 14.6849421,7.46835949 14.6849421,6.88494208 C14.6849421,6.30152468 15.1578953,5.82857143 15.7413127,5.82857143 C16.3247301,5.82857143 16.7976834,6.30152468 16.7976834,6.88494208 C16.7976834,7.46835949 16.3247301,7.94131274 15.7413127,7.94131274 Z M15.4633205,6.76447876 C15.6475575,6.76447876 15.7969112,6.61512511 15.7969112,6.43088803 C15.7969112,6.24665096 15.6475575,6.0972973 15.4633205,6.0972973 C15.2790834,6.0972973 15.1297297,6.24665096 15.1297297,6.43088803 C15.1297297,6.61512511 15.2790834,6.76447876 15.4633205,6.76447876 Z M11.3583012,9.43320463 C11.4694981,9.00694981 11.8586873,8.86795367 12.1737452,8.85868726 C12.9799228,8.84015444 13.2857143,9.27567568 13.3135135,9.61853282 C13.369112,10.2023166 11.1081081,10.3413127 11.3583012,9.43320463 Z M8.87490347,7.94131274 C8.29148607,7.94131274 7.81853282,7.46835949 7.81853282,6.88494208 C7.81853282,6.30152468 8.29148607,5.82857143 8.87490347,5.82857143 C9.45832088,5.82857143 9.93127413,6.30152468 9.93127413,6.88494208 C9.93127413,7.46835949 9.45832088,7.94131274 8.87490347,7.94131274 Z M9.15289575,6.76447876 C9.33713283,6.76447876 9.48648649,6.61512511 9.48648649,6.43088803 C9.48648649,6.24665096 9.33713283,6.0972973 9.15289575,6.0972973 C8.96865868,6.0972973 8.81930502,6.24665096 8.81930502,6.43088803 C8.81930502,6.61512511 8.96865868,6.76447876 9.15289575,6.76447876 Z"/></g></svg>

<svg viewBox="0 0 24 24"><g fill="none"><path fill="#8CC5E7" d="M21.468 3.206c.713 1.474-1.455 1.631-1.344 2.289c.204 1.186.065 2.947-.092 4.68c-.27 2.937 1.927 9.97-2.65 12.796c-.862.538-2.91.834-4.93.88h-.01h-.009c-2.02-.046-4.346-.342-5.208-.88c-4.568-2.826-2.372-9.859-2.631-12.796c-.167-1.733-.306-3.494-.093-4.68c.111-.658-2.057-.806-1.343-2.289c.611-1.27 2.122-.148 2.501-.547C7.596.65 9.95.111 11.803.065h1.02c1.843.093 4.197.593 6.143 2.594c.38.399 1.881-.722 2.502.547zm-10.036 7.7c-.083.038-.222.946.204.992c.288.028 1.075.12 1.26 0c.362-.232.325-.788.121-.927c-.343-.222-1.492-.11-1.585-.064zM9.08 4.106c-.955-.111-2.558.778-2.799 2.669c-.26 1.964 2.057 3.91 4.281 1.964c1.196-1.047 1.613-4.272-1.482-4.633zm6.45 0c-3.096.361-2.679 3.586-1.483 4.633c2.223 1.946 4.54 0 4.28-1.964c-.231-1.89-1.834-2.78-2.798-2.669z"/><path fill="#B8937F" d="M12.313 8.988c.584-.083 1.983.584 1.89 1.372c-.111.917-3.605 1.038-3.79-.056c-.111-.667.417-1.093 1.9-1.316zm7.885 7.386c-.287-.01-.472-.39-.472-.621c0-.417.055-.908.361-1.121c.63-.436 1.13 1.751.111 1.742zm-15.78 0c-1.02.009-.52-2.178.111-1.742c.306.213.361.704.361 1.12c0 .233-.185.612-.472.622zm13.844 6.718c.185.269.194.454-.102.593c-1.13.519-2.14-.176-1.76-.37c.805-.408 1.306-1.048 1.862-.223zm-11.908.093c.556-.825 1.057-.186 1.863.222c.38.195-.63.89-1.76.37c-.297-.138-.288-.324-.103-.592z"/><path fill="#000" d="M19.735 3.429c.046-.195.528-.288.797.046c.324.398-.473.945-.51.723c-.092-.603-.342-.575-.287-.77zm-14.854 0c.056.194-.195.166-.287.769c-.037.222-.834-.325-.51-.723c.26-.334.741-.241.797-.046zm10.86 4.512a1.056 1.056 0 1 1 0-2.112a1.056 1.056 0 0 1 0 2.112zm-.278-1.177a.334.334 0 1 0 0-.667a.334.334 0 0 0 0 .667zm-4.105 2.67c.111-.427.5-.566.816-.575c.806-.019 1.112.417 1.14.76c.055.583-2.206.722-1.956-.186zM8.875 7.94a1.056 1.056 0 1 1 0-2.112a1.056 1.056 0 0 1 0 2.112zm.278-1.177a.334.334 0 1 0 0-.667a.334.334 0 0 0 0 .667z"/></g></svg>
